assets/svgs/javascript-svgrepo-com.svg

<?xml version="1.0" encoding="utf-8"?><!-- Uploaded to: SVG Repo, www.svgrepo.com, Generator: SVG Repo Mixer Tools -->
<svg width="800px" height="800px" viewBox="0 0 15 15" fill="none" xmlns="http://www.w3.org/2000/svg">
<path d="M12.5 8V7.83333C12.5 7.09695 11.903 6.5 11.1667 6.5H10C9.17157 6.5 8.5 7.17157 8.5 8C8.5 8.82843 9.17157 9.5 10 9.5H11C11.8284 9.5 12.5 10.1716 12.5 11C12.5 11.8284 11.8284 12.5 11 12.5H10C9.17157 12.5 8.5 11.8284 8.5 11M6.5 6V11C6.5 11.8284 5.82843 12.5 5 12.5C4.17157 12.5 3.5 11.8284 3.5 11M0.5 0.5H14.5V14.5H0.5V0.5Z" stroke="#000000"/>
</svg>

<svg xmlns="http://www.w3.org/2000/svg" width="800" height="800" fill="none" viewBox="0 0 15 15"><path stroke="#000" d="M12.5 8v-.167c0-.736-.597-1.333-1.333-1.333H10a1.5 1.5 0 1 0 0 3h1a1.5 1.5 0 0 1 0 3h-1A1.5 1.5 0 0 1 8.5 11m-2-5v5a1.5 1.5 0 0 1-3 0M.5.5h14v14H.5z"/></svg>
